ui/StatusQ/src/assets/img/icons/arrow-next.svg

<svg fill="none" height="24" viewBox="0 0 24 24" width="24" xmlns="http://www.w3.org/2000/svg"><path clip-rule="evenodd" d="m9.46967 5.46967c.29289-.29289.76773-.29289 1.06063 0l5.6465 5.64643c.4881.4882.4881 1.2796 0 1.7678l-5.6465 5.6464c-.2929.2929-.76774.2929-1.06063 0s-.29289-.7677 0-1.0606l5.11613-5.1161c.1952-.1953.1952-.5119 0-.7072l-5.11613-5.11607c-.29289-.29289-.29289-.76777 0-1.06066z" fill="#4360df" fill-rule="evenodd"/></svg>

<svg width="24" height="24" viewBox="0 0 24 24" fill="none" xmlns="http://www.w3.org/2000/svg">
<path fill-rule="evenodd" clip-rule="evenodd" d="M9.46967 5.46967C9.76256 5.17678 10.2374 5.17678 10.5303 5.46967L16.1768 11.1161C16.6649 11.6043 16.6649 12.3957 16.1768 12.8839L10.5303 18.5303C10.2374 18.8232 9.76256 18.8232 9.46967 18.5303C9.17678 18.2374 9.17678 17.7626 9.46967 17.4697L14.5858 12.3536C14.781 12.1583 14.781 11.8417 14.5858 11.6464L9.46967 6.53033C9.17678 6.23744 9.17678 5.76256 9.46967 5.46967Z" fill="#4360DF"/>
</svg>
